static/img/in-field/btn-ancillary-states-icon-pressed.svg

<svg width="48" height="48" viewBox="0 0 48 48" fill="none" xmlns="http://www.w3.org/2000/svg">
<rect width="48" height="48" rx="4" fill="#A3A6B1"/>
<path d="M18 14.75C17.5579 14.75 17.1383 14.8378 16.7561 14.9963C16.3735 15.155 15.9347 14.9734 15.7761 14.5908C15.6174 14.2082 15.7989 13.7694 16.1816 13.6107C16.7427 13.378 17.3573 13.25 18 13.25H19.5C19.9142 13.25 20.25 13.5858 20.25 14C20.25 14.4142 19.9142 14.75 19.5 14.75H18Z" fill="#363545"/>
<path d="M21.75 14C21.75 13.5858 22.0858 13.25 22.5 13.25H25.5C25.9142 13.25 26.25 13.5858 26.25 14C26.25 14.4142 25.9142 14.75 25.5 14.75H22.5C22.0858 14.75 21.75 14.4142 21.75 14Z" fill="#363545"/>
<path d="M27.75 14C27.75 13.5858 28.0858 13.25 28.5 13.25H30C30.6427 13.25 31.2573 13.378 31.8184 13.6107C32.2011 13.7694 32.3826 14.2082 32.2239 14.5908C32.0653 14.9734 31.6265 15.155 31.2439 14.9963C30.8617 14.8378 30.4421 14.75 30 14.75H28.5C28.0858 14.75 27.75 14.4142 27.75 14Z" fill="#363545"/>
<path d="M14.5908 15.7761C14.9734 15.9347 15.155 16.3735 14.9963 16.7561C14.8378 17.1383 14.75 17.5579 14.75 18V19.5C14.75 19.9142 14.4142 20.25 14 20.25C13.5858 20.25 13.25 19.9142 13.25 19.5V18C13.25 17.3573 13.378 16.7427 13.6107 16.1816C13.7694 15.7989 14.2082 15.6174 14.5908 15.7761Z" fill="#363545"/>
<path d="M33.4092 15.7761C33.7918 15.6174 34.2306 15.7989 34.3893 16.1816C34.622 16.7427 34.75 17.3573 34.75 18V19.5C34.75 19.9142 34.4142 20.25 34 20.25C33.5858 20.25 33.25 19.9142 33.25 19.5V18C33.25 17.5579 33.1622 17.1383 33.0037 16.7561C32.845 16.3735 33.0266 15.9347 33.4092 15.7761Z" fill="#363545"/>
<path d="M14 21.75C14.4142 21.75 14.75 22.0858 14.75 22.5V25.5C14.75 25.9142 14.4142 26.25 14 26.25C13.5858 26.25 13.25 25.9142 13.25 25.5V22.5C13.25 22.0858 13.5858 21.75 14 21.75Z" fill="#363545"/>
<path d="M34 21.75C34.4142 21.75 34.75 22.0858 34.75 22.5V25.5C34.75 25.9142 34.4142 26.25 34 26.25C33.5858 26.25 33.25 25.9142 33.25 25.5V22.5C33.25 22.0858 33.5858 21.75 34 21.75Z" fill="#363545"/>
<path d="M14 27.75C14.4142 27.75 14.75 28.0858 14.75 28.5V30C14.75 30.4421 14.8378 30.8617 14.9963 31.2439C15.155 31.6265 14.9734 32.0653 14.5908 32.2239C14.2082 32.3826 13.7694 32.2011 13.6107 31.8184C13.378 31.2573 13.25 30.6427 13.25 30V28.5C13.25 28.0858 13.5858 27.75 14 27.75Z" fill="#363545"/>
<path d="M34 27.75C34.4142 27.75 34.75 28.0858 34.75 28.5V30C34.75 30.6427 34.622 31.2573 34.3893 31.8184C34.2306 32.2011 33.7918 32.3826 33.4092 32.2239C33.0266 32.0653 32.845 31.6265 33.0037 31.2439C33.1622 30.8617 33.25 30.4421 33.25 30V28.5C33.25 28.0858 33.5858 27.75 34 27.75Z" fill="#363545"/>
<path d="M15.7761 33.4092C15.9347 33.0266 16.3735 32.845 16.7561 33.0037C17.1383 33.1622 17.5579 33.25 18 33.25H19.5C19.9142 33.25 20.25 33.5858 20.25 34C20.25 34.4142 19.9142 34.75 19.5 34.75H18C17.3573 34.75 16.7427 34.622 16.1816 34.3893C15.7989 34.2306 15.6174 33.7918 15.7761 33.4092Z" fill="#363545"/>
<path d="M32.2239 33.4092C32.3826 33.7918 32.2011 34.2306 31.8184 34.3893C31.2573 34.622 30.6427 34.75 30 34.75H28.5C28.0858 34.75 27.75 34.4142 27.75 34C27.75 33.5858 28.0858 33.25 28.5 33.25H30C30.4421 33.25 30.8617 33.1622 31.2439 33.0037C31.6265 32.845 32.0653 33.0266 32.2239 33.4092Z" fill="#363545"/>
<path d="M21.75 34C21.75 33.5858 22.0858 33.25 22.5 33.25H25.5C25.9142 33.25 26.25 33.5858 26.25 34C26.25 34.4142 25.9142 34.75 25.5 34.75H22.5C22.0858 34.75 21.75 34.4142 21.75 34Z" fill="#363545"/>
<path d="M32.5303 16.591C32.8232 16.2981 32.8232 15.8232 32.5303 15.5303C32.2374 15.2374 31.7626 15.2374 31.4697 15.5303L30.4735 16.5265C30.1806 16.8194 30.1806 17.2943 30.4735 17.5872C30.7664 17.8801 31.2412 17.8801 31.5341 17.5872L32.5303 16.591Z" fill="#363545"/>
<path d="M29.5417 19.5796C29.8346 19.2867 29.8346 18.8118 29.5417 18.519C29.2488 18.2261 28.7739 18.2261 28.481 18.519L26.4886 20.5114C26.1957 20.8043 26.1957 21.2791 26.4886 21.572C26.7815 21.8649 27.2564 21.8649 27.5493 21.572L29.5417 19.5796Z" fill="#363545"/>
<path d="M25.5569 23.5645C25.8498 23.2716 25.8498 22.7967 25.5569 22.5038C25.264 22.2109 24.7891 22.2109 24.4962 22.5038L24 23L23.5038 22.5038C23.2109 22.2109 22.736 22.2109 22.4431 22.5038C22.1502 22.7967 22.1502 23.2716 22.4431 23.5645L22.9393 24.0607L22.5038 24.4962C22.2109 24.7891 22.2109 25.264 22.5038 25.5569C22.7967 25.8498 23.2716 25.8498 23.5645 25.5569L24 25.1213L24.4355 25.5569C24.7284 25.8498 25.2033 25.8498 25.4962 25.5569C25.7891 25.264 25.7891 24.7891 25.4962 24.4962L25.0607 24.0607L25.5569 23.5645Z" fill="#363545"/>
<path d="M21.572 27.5493C21.8649 27.2564 21.8649 26.7815 21.572 26.4886C21.2791 26.1957 20.8043 26.1957 20.5114 26.4886L18.519 28.481C18.2261 28.7739 18.2261 29.2488 18.519 29.5417C18.8118 29.8346 19.2867 29.8346 19.5796 29.5417L21.572 27.5493Z" fill="#363545"/>
<path d="M17.5872 31.5341C17.8801 31.2412 17.8801 30.7664 17.5872 30.4735C17.2943 30.1806 16.8194 30.1806 16.5265 30.4735L15.5303 31.4697C15.2374 31.7626 15.2374 32.2374 15.5303 32.5303C15.8232 32.8232 16.2981 32.8232 16.591 32.5303L17.5872 31.5341Z" fill="#363545"/>
<path d="M31.409 32.5303C31.7019 32.8232 32.1768 32.8232 32.4697 32.5303C32.7626 32.2374 32.7626 31.7626 32.4697 31.4697L31.4735 30.4735C31.1806 30.1806 30.7057 30.1806 30.4128 30.4735C30.1199 30.7664 30.1199 31.2412 30.4128 31.5341L31.409 32.5303Z" fill="#363545"/>
<path d="M28.4204 29.5417C28.7133 29.8346 29.1882 29.8346 29.481 29.5417C29.7739 29.2488 29.7739 28.7739 29.481 28.481L27.4886 26.4886C27.1957 26.1957 26.7209 26.1957 26.428 26.4886C26.1351 26.7815 26.1351 27.2564 26.428 27.5493L28.4204 29.5417Z" fill="#363545"/>
<path d="M20.4507 21.572C20.7436 21.8649 21.2185 21.8649 21.5114 21.572C21.8043 21.2791 21.8043 20.8043 21.5114 20.5114L19.519 18.519C19.2261 18.2261 18.7512 18.2261 18.4583 18.519C18.1654 18.8118 18.1654 19.2867 18.4583 19.5796L20.4507 21.572Z" fill="#363545"/>
<path d="M16.4659 17.5872C16.7588 17.8801 17.2336 17.8801 17.5265 17.5872C17.8194 17.2943 17.8194 16.8194 17.5265 16.5265L16.5303 15.5303C16.2374 15.2374 15.7626 15.2374 15.4697 15.5303C15.1768 15.8232 15.1768 16.2981 15.4697 16.591L16.4659 17.5872Z" fill="#363545"/>
<path d="M21.0559 18.889C21.3538 18.7988 21.6705 18.75 22 18.75H22.75C23.1642 18.75 23.5 18.4142 23.5 18C23.5 17.5858 23.1642 17.25 22.75 17.25H22C21.5216 17.25 21.0583 17.321 20.621 17.4535C20.2246 17.5736 20.0006 17.9923 20.1207 18.3887C20.2408 18.7851 20.6595 19.0091 21.0559 18.889Z" fill="#363545"/>
<path d="M25.25 17.25C24.8358 17.25 24.5 17.5858 24.5 18C24.5 18.4142 24.8358 18.75 25.25 18.75H26C26.3295 18.75 26.6462 18.7988 26.9441 18.889C27.3405 19.0091 27.7592 18.7851 27.8793 18.3887C27.9994 17.9923 27.7754 17.5736 27.379 17.4535C26.9417 17.321 26.4784 17.25 26 17.25H25.25Z" fill="#363545"/>
<path d="M18.889 21.0559C19.0091 20.6595 18.7851 20.2408 18.3887 20.1207C17.9923 20.0006 17.5736 20.2246 17.4535 20.621C17.321 21.0583 17.25 21.5216 17.25 22V22.75C17.25 23.1642 17.5858 23.5 18 23.5C18.4142 23.5 18.75 23.1642 18.75 22.75V22C18.75 21.6705 18.7988 21.3538 18.889 21.0559Z" fill="#363545"/>
<path d="M30.5465 20.621C30.4264 20.2246 30.0077 20.0006 29.6113 20.1207C29.2149 20.2408 28.9909 20.6595 29.111 21.0559C29.2012 21.3538 29.25 21.6705 29.25 22V22.75C29.25 23.1642 29.5858 23.5 30 23.5C30.4142 23.5 30.75 23.1642 30.75 22.75V22C30.75 21.5216 30.679 21.0583 30.5465 20.621Z" fill="#363545"/>
<path d="M18.75 25.25C18.75 24.8358 18.4142 24.5 18 24.5C17.5858 24.5 17.25 24.8358 17.25 25.25V26C17.25 26.4784 17.321 26.9417 17.4535 27.379C17.5736 27.7754 17.9923 27.9994 18.3887 27.8793C18.7851 27.7592 19.0091 27.3405 18.889 26.9441C18.7988 26.6462 18.75 26.3295 18.75 26V25.25Z" fill="#363545"/>
<path d="M30.75 25.25C30.75 24.8358 30.4142 24.5 30 24.5C29.5858 24.5 29.25 24.8358 29.25 25.25V26C29.25 26.3295 29.2012 26.6462 29.111 26.9441C28.9909 27.3405 29.2149 27.7592 29.6113 27.8793C30.0077 27.9994 30.4264 27.7754 30.5465 27.379C30.679 26.9417 30.75 26.4784 30.75 26V25.25Z" fill="#363545"/>
<path d="M21.0559 29.111C20.6595 28.9909 20.2408 29.2149 20.1207 29.6113C20.0006 30.0077 20.2246 30.4264 20.621 30.5465C21.0583 30.679 21.5216 30.75 22 30.75H22.75C23.1642 30.75 23.5 30.4142 23.5 30C23.5 29.5858 23.1642 29.25 22.75 29.25H22C21.6705 29.25 21.3538 29.2012 21.0559 29.111Z" fill="#363545"/>
<path d="M27.379 30.5465C27.7754 30.4264 27.9994 30.0077 27.8793 29.6113C27.7592 29.2149 27.3405 28.9909 26.9441 29.111C26.6462 29.2012 26.3295 29.25 26 29.25H25.25C24.8358 29.25 24.5 29.5858 24.5 30C24.5 30.4142 24.8358 30.75 25.25 30.75H26C26.4784 30.75 26.9417 30.679 27.379 30.5465Z" fill="#363545"/>
</svg>

<svg width="48" height="48" fill="none" xmlns="http://www.w3.org/2000/svg"><rect width="48" height="48" rx="4" fill="#A3A6B1"/><path d="M18 14.75c-.442 0-.862.088-1.244.246a.75.75 0 11-.574-1.385A4.737 4.737 0 0118 13.25h1.5a.75.75 0 010 1.5H18zM21.75 14a.75.75 0 01.75-.75h3a.75.75 0 010 1.5h-3a.75.75 0 01-.75-.75zM27.75 14a.75.75 0 01.75-.75H30c.643 0 1.257.128 1.818.36a.75.75 0 11-.574 1.386A3.238 3.238 0 0030 14.75h-1.5a.75.75 0 01-.75-.75zM14.59 15.776a.75.75 0 01.406.98A3.238 3.238 0 0014.75 18v1.5a.75.75 0 01-1.5 0V18c0-.643.128-1.257.36-1.818a.75.75 0 01.98-.406zM33.41 15.776a.75.75 0 01.98.406c.232.56.36 1.175.36 1.818v1.5a.75.75 0 01-1.5 0V18c0-.442-.088-.862-.246-1.244a.75.75 0 01.405-.98zM14 21.75a.75.75 0 01.75.75v3a.75.75 0 01-1.5 0v-3a.75.75 0 01.75-.75zM34 21.75a.75.75 0 01.75.75v3a.75.75 0 01-1.5 0v-3a.75.75 0 01.75-.75zM14 27.75a.75.75 0 01.75.75V30c0 .442.088.862.246 1.244a.75.75 0 11-1.385.574A4.737 4.737 0 0113.25 30v-1.5a.75.75 0 01.75-.75zM34 27.75a.75.75 0 01.75.75V30c0 .643-.128 1.257-.36 1.818a.75.75 0 11-1.386-.574c.158-.382.246-.802.246-1.244v-1.5a.75.75 0 01.75-.75zM15.776 33.41a.75.75 0 01.98-.406c.382.158.802.246 1.244.246h1.5a.75.75 0 010 1.5H18a4.737 4.737 0 01-1.818-.36.75.75 0 01-.406-.98zM32.224 33.41a.75.75 0 01-.406.98 4.737 4.737 0 01-1.818.36h-1.5a.75.75 0 010-1.5H30c.442 0 .862-.088 1.244-.246a.75.75 0 01.98.405zM21.75 34a.75.75 0 01.75-.75h3a.75.75 0 010 1.5h-3a.75.75 0 01-.75-.75zM32.53 16.591a.75.75 0 00-1.06-1.06l-.996.995a.75.75 0 001.06 1.061l.996-.996zM29.542 19.58a.75.75 0 10-1.061-1.061l-1.992 1.992a.75.75 0 101.06 1.061l1.993-1.992zM25.557 23.564a.75.75 0 00-1.06-1.06L24 23l-.496-.496a.75.75 0 00-1.06 1.06l.495.497-.435.435a.75.75 0 001.06 1.06l.436-.435.436.436a.75.75 0 001.06-1.06l-.435-.436.496-.497zM21.572 27.55a.75.75 0 00-1.06-1.061l-1.993 1.992a.75.75 0 001.06 1.06l1.993-1.992zM17.587 31.534a.75.75 0 10-1.06-1.06l-.997.996a.75.75 0 101.061 1.06l.996-.996zM31.409 32.53a.75.75 0 001.06-1.06l-.995-.996a.75.75 0 00-1.061 1.06l.996.996zM28.42 29.542a.75.75 0 101.061-1.061l-1.992-1.992a.75.75 0 10-1.061 1.06l1.992 1.993zM20.45 21.572a.75.75 0 001.061-1.06l-1.992-1.993a.75.75 0 00-1.06 1.06l1.992 1.993zM16.466 17.587a.75.75 0 101.06-1.06l-.996-.997a.75.75 0 10-1.06 1.061l.996.996zM21.056 18.889c.298-.09.614-.139.944-.139h.75a.75.75 0 000-1.5H22a4.75 4.75 0 00-1.379.203.75.75 0 00.435 1.436zM25.25 17.25a.75.75 0 000 1.5H26c.33 0 .646.049.944.139a.75.75 0 00.435-1.436A4.75 4.75 0 0026 17.25h-.75zM18.889 21.056a.75.75 0 00-1.436-.435A4.75 4.75 0 0017.25 22v.75a.75.75 0 001.5 0V22c0-.33.049-.646.139-.944zM30.547 20.621a.75.75 0 00-1.436.435c.09.298.139.614.139.944v.75a.75.75 0 001.5 0V22a4.75 4.75 0 00-.203-1.379zM18.75 25.25a.75.75 0 00-1.5 0V26c0 .478.071.942.203 1.379a.75.75 0 001.436-.435A3.252 3.252 0 0118.75 26v-.75zM30.75 25.25a.75.75 0 00-1.5 0V26c0 .33-.049.646-.139.944a.75.75 0 001.436.435c.132-.437.203-.9.203-1.379v-.75zM21.056 29.111a.75.75 0 00-.435 1.436c.437.132.9.203 1.379.203h.75a.75.75 0 000-1.5H22c-.33 0-.646-.049-.944-.139zM27.379 30.547a.75.75 0 00-.435-1.436c-.298.09-.614.139-.944.139h-.75a.75.75 0 000 1.5H26a4.75 4.75 0 001.379-.203z" fill="#363545"/></svg>
